X: 132017
T: OVER THE BORDER
Q: "Scotch Jig."
R: Jig.
%R: jig
B: James Kerr "Merry Melodies" v.1 p.32 s.0 #17
Z: 2016 John Chambers <jc:trillian.mit.edu>
M: 6/8
L: 1/8
%%slurgraces yes
%%graceslurs yes
K: G
|:\
G3 G3 | GBA GED | G>EE uE2uD | edB uA2uB |\
G3 G3 | GBA GED | c>de (d<g)uG | GAB {B}A2G H:|
GBd dBG | edB BAG | GBd efg | GAB BAG |\
GBd dBG | edB BAG | EGE DEF | GAB AB"_D.C."A |]

%%sep 1 1 500
%%sep 1 1 500

